remix/System/find-replace-line.svg

<svg viewBox="0 0 24 24" fill="currentColor" xmlns="http://www.w3.org/2000/svg"><path d="M18.0326 16.6184L22.3137 20.8995L20.8995 22.3137L16.6184 18.0326C15.0789 19.2639 13.1258 20 11 20C7.46456 20 4.40684 17.964 2.93475 15H6H9L7.69597 17.1734C8.67997 17.7009 9.80489 18 11 18C12.8956 18 14.6146 17.2475 15.8748 16.0247L16.0247 15.8748C17.2475 14.6146 18 12.8956 18 11C18 10.305 17.8988 9.63365 17.7104 9H19.7772C19.923 9.64318 20 10.3126 20 11C20 13.1258 19.2639 15.0789 18.0326 16.6184ZM19.0652 7H13L14.304 4.82662C13.32 4.29912 12.1951 4 11 4C7.1325 4 4 7.1325 4 11C4 11.695 4.10117 12.3663 4.2896 13H2.22279C2.07698 12.3568 2 11.6874 2 11C2 6.0275 6.0275 2 11 2C14.5354 2 17.5932 4.03597 19.0652 7Z"/></svg>

<svg viewBox="0 0 24 24" xmlns="http://www.w3.org/2000/svg"><path fill="none" d="M0 0h24v24H0Z"/><path d="M18.033 16.61l4.28 4.28 -1.42 1.41 -4.28-4.29v0c-1.6 1.27-3.58 1.97-5.619 1.96v0c-3.43 0-6.55-1.94-8.07-5h6.06l-1.31 2.17v0c1.01.54 2.15.82 3.3.82v0c1.82 0 3.56-.71 4.87-1.98l.15-.15 0 0c1.26-1.31 1.97-3.06 1.97-4.875 0-.7-.11-1.37-.29-2h2.06c.14.64.22 1.31.22 2v0c0 2.04-.7 4.02-1.97 5.61Zm1.03-9.62h-6.07l1.3-2.18 0 0c-1.02-.55-2.16-.83-3.31-.83 -3.87 0-7 3.13-7 7 0 .69.1 1.36.29 2H2.2 2.2c-.15-.66-.23-1.33-.23-2 0-4.98 4.02-9 9-9V1.97c3.42-.01 6.54 1.93 8.065 5Z"/></svg>
